svg/wallpaper.svg

<svg width="84" height="16" xmlns="http://www.w3.org/2000/svg"><path d="M78 7V4h-2v3h-3v2h3v3h2V9h3V7h-3ZM30 7V4h-2v3h-3v2h3v3h2V9h3V7h-3ZM10 0h2v16h-2V0Zm6 0h4v16h-4V0ZM2 0h4v16H2V0Zm50 0h2v16h-2V0ZM38 0h2v16h-2V0Zm28 0h2v16h-2V0Zm-8 0h6v16h-6V0ZM42 0h6v16h-6V0Z" fill="#000" fill-rule="evenodd"/></svg>

<?xml version="1.0" encoding="UTF-8" standalone="no"?>
<svg width="84px" height="16px" viewBox="0 0 84 16" version="1.1" xmlns="http://www.w3.org/2000/svg" xmlns:xlink="http://www.w3.org/1999/xlink">
    <!-- Generator: Sketch 40 (33762) - http://www.bohemiancoding.com/sketch -->
    <title>plus-lines</title>
    <desc>Created with Sketch.</desc>
    <defs></defs>
    <g id="Page-1" stroke="none" stroke-width="1" fill="none" fill-rule="evenodd">
        <g id="plus-lines" fill="#000000">
            <path d="M78,7 L78,4 L76,4 L76,7 L73,7 L73,9 L76,9 L76,12 L78,12 L78,9 L81,9 L81,7 L78,7 L78,7 Z M30,7 L30,4 L28,4 L28,7 L25,7 L25,9 L28,9 L28,12 L30,12 L30,9 L33,9 L33,7 L30,7 L30,7 Z M10,0 L12,0 L12,16 L10,16 L10,0 L10,0 Z M16,0 L20,0 L20,16 L16,16 L16,0 L16,0 Z M2,0 L6,0 L6,16 L2,16 L2,0 L2,0 Z M52,0 L54,0 L54,16 L52,16 L52,0 L52,0 Z M38,0 L40,0 L40,16 L38,16 L38,0 L38,0 Z M66,0 L68,0 L68,16 L66,16 L66,0 L66,0 Z M58,0 L64,0 L64,16 L58,16 L58,0 L58,0 Z M42,0 L48,0 L48,16 L42,16 L42,0 L42,0 Z" id="Combined-Shape"></path>
        </g>
    </g>
</svg>
